X: 236
T: Stone Of Destiny
M: 4/4
L: 1/8
R: reel
K: Gmaj
BddB G2Bd|d2 Bd edBA|BddB GABd|gedB A3d|
edBA BGGA|BGAG EGG2|DG (3GFG DGBe|dBAB G3d :||
edBA BGGA|BGAG EGG>e|edBA BGGA|BddB A3d|
edBA BGGA|BGAG EGG2|DG(3GFG DGBe|dBAB G3d:||

